X:3
T:Royal Hunt. LIT.003, The
M:2/2
Q:1/4=140
L:1/8
B:Wm. Litten MS, 1802
Z:Village Music Project 2017 Anne Wride
K:D
AF dc BG dB | AF DF E2E2 | AF dc BG ge | fa Ac d2 d2:|
|: AF ge fa df | cA ge fa df | BG Bd cA eg | fa Ac d2d2:|

